X:1
T:Title
%%score { ( 1 3 ) | ( 2 4 ) }
L:1/8
M:3/4
K:Bb
V:1 treble nm="Grand Piano"
V:3 treble 
V:2 bass 
V:4 bass 
V:1
 z2 z2[Q:1/4=88] F2 | F3 F Bc | d>c B2 [B,DB]2 | [B,EB]3 [B,=EB] [B,FB][B,^FB] |[M:2/4] [GB]2 G2 | %5
[M:1/4] [=B,FG]2 |[M:3/4] [EG]3 [EG] [Ec][Gd] | [Ge]>[Gd] [Gc]2 [GB]2 | A3 A BG |[M:2/4] c4 | %10
[M:1/4] F2 |[M:3/4] [B,DF]3 [CD_A] [B,DG][B,DF] | [B,EG]>[CE^F] [B,EG]2 [=B,=FG]2 | %13
 [C=EG]3 [DEB] [CEA][CEG] |[M:2/4] [CFA]4 |[M:1/4] [CGA]2 |[M:3/4] [C^FA]3 [Fc] [FB][FA] | %17
 [GB]>[_AB] [GB]2 [Ge]2 | d3 B BA |[M:6/4] .[DB]6 z6 |[M:3/4] [EB]6 | [DB]6 |] %22
V:2
 z2 z2 F,2 | F,3 F, [D,B,D][F,CF] | [B,DB]>[F,CF][K:bass] [D,B,D]2 B,,2 | C,3 _D, =D,D, | %4
[M:2/4] z2 E2 |[M:1/4] D,2 |[M:3/4] [C,C]3 [C,C] [C,C][G,=B,] | [C,C]>[D,B,] [E,C]2 [E,C]2 | %8
 [F,CF]3 [F,CF] [G,C=E][B,CE] |[M:2/4] [A,CF]4 |[M:1/4][K:bass] [F,A,E]2 |[M:3/4] B,,3 B,, B,,B,, | %12
 E,>E, E,2 D,2 | C,3 C, C,C, |[M:2/4] F,4 |[M:1/4] E,2 |[M:3/4] D,3 [D,A,] [D,D][D,C] | %17
 [G,D]>[F,D] [E,E]2 [E,B,]2 | [F,B,F]3 [F,DF] [F,CE][F,CE] |[M:6/4] .[B,,B,]6 z6 |[M:3/4] [E,G,]6 | %21
 [B,,F,]6 |] %22
V:3
 x6 | x6 | x6 | x6 |[M:2/4] B,4 |[M:1/4] x2 |[M:3/4] x6 | x6 | x6 |[M:2/4] x4 |[M:1/4] x2 | %11
[M:3/4] x6 | x6 | x6 |[M:2/4] x4 |[M:1/4] x2 |[M:3/4] x6 | x6 | x6 |[M:6/4] x12 |[M:3/4] x6 | x6 |] %22
V:4
 x6 | x6 | x2[K:bass] x4 | x6 |[M:2/4] E,4 |[M:1/4] x2 |[M:3/4] x6 | x6 | x6 |[M:2/4] x4 | %10
[M:1/4][K:bass] x2 |[M:3/4] x6 | x6 | x6 |[M:2/4] x4 |[M:1/4] x2 |[M:3/4] x6 | x6 | x6 | %19
[M:6/4] x12 |[M:3/4] x6 | x6 |] %22

